!!!COM: Palestrina, Giovanni Perluigi da
!!!OPR: Missa De beata virgine (1567)
!!!OMD: Sanctus
!!!OTL: Pleni
**kern	**kern	**kern
*Itenor	*Icalto	*Icant
!Tenor	!Altus	!Cantus
*clefGv2	*clefG2	*clefG2
*k[b-]	*k[b-]	*k[b-]
*?:X	*?:X	*?:X
*M4/2	*M4/2	*M4/2
=37	=37	=37
0c	1r	0r
.	[1g	.
=38	=38	=38
1B-	1g]	0r
2.A	1f	.
4B-	.	.
=39	=39	=39
4c	2.e	1r
4d	.	.
1c	.	.
.	4f	.
.	4g	[1cc
.	4a	.
2B-	[2g	.
=40	=40	=40
2A	4g]	1cc]
.	4f	.
4G	1f	.
4F	.	.
1G	.	1b-
.	2e	.
=41	=41	=41
1F	2.f	2.a
.	4g	4b-
1r	1a	4cc
.	.	4dd
.	.	[2cc
=42	=42	=42
0f	1r	2cc]
.	.	2b-
.	[1cc	2a
.	.	4g
.	.	4f
=43	=43	=43
1e	1cc]	1g
2.d	1b-	1f
4e	.	.
=44	=44	=44
4f	2.a	0ff
4g	.	.
1f	.	.
.	4b-	.
.	4cc	.
.	4b	.
4e	[2cc	.
4d	.	.
=45	=45	=45
1c	4cc]	1ee
.	4b-	.
.	4a	.
.	4g	.
[1d	2f	2.dd
.	[2b-	.
.	.	4ee
=46	=46	=46
1d]	2b-]	4ff
.	.	4gg
.	1a	1ff
1B-	.	.
.	2g	4ee
.	.	4dd
=47	=47	=47
1A	2.a	2cc
.	.	1cc
.	4g	.
2r	4e	.
.	4f	.
2B-	[2g	2b-
=48	=48	=48
2c	4g]	2a
.	4f	.
2d	1f	2f
1c	.	1g
.	2e	.
=49	=49	=49
2r	4f	1a
.	4g	.
1f	4a	.
.	4f	.
.	1g	1r
2e	.	.
=50	=50	=50
2d	0a	1r
2c	.	.
2.d	.	1f
4e	.	.
=51	=51	=51
1f	2r	1a
.	1f	.
2.c	.	1g
.	2e	.
8B-	.	.
8A	.	.
=52	=52	=52
2B	2d	0g
2c	2c	.
2B	2d	.
2c	2e	.
=53	=53	=53
1F	4f	0cc
.	4g	.
.	4a	.
.	4b-	.
2r	[1a	.
[2f	.	.
=54	=54	=54
2f]	2a]	1cc
2e	2g	.
4d	2r	[1dd
4c	.	.
4d	[2b-	.
4e	.	.
=55	=55	=55
1f	2b-]	2dd]
.	2a	4cc
.	.	4b-
2e	2g	2cc
2d	2f	[2dd
=56	=56	=56
2e	2g	4dd]
.	.	4cc
2f	1a	1cc
1d	.	.
.	4g	2b
.	4f	.
=57	=57	=57
2c	2e	0cc
1f	2a	.
.	1g	.
2e	.	.
=58	=58	=58
2f	2r	0r
4F	1f	.
4G	.	.
4A	.	.
4B-	.	.
2c	2e	.
=59	=59	=59
2B-	2d	0f
2A	2c	.
1B-	2.d	.
.	4e	.
=60	=60	=60
0F	2.f	0a
.	8e	.
.	8d	.
.	2c	.
.	[2f	.
=61	=61	=61
2r	2f]	1g
1c	4e	.
.	4d	.
.	2e	1g
2B-	[2g	.
=62	=62	=62
2.A	2g]	2.cc
.	2f	.
4G	.	4b
2A	2e	2cc
2B	2d	[2dd
=63	=63	=63
2c	2e	4dd]
.	.	4cc
2F	2f	1cc
1G	1d	.
.	.	2b
=64	=64	=64
2.A	2c	1cc
.	1a	.
4G	.	.
2F	.	2.cc
2E	2g	.
.	.	4b-
=65	=65	=65
2F	2f	2a
2c	2e	2g
1F	1f	1a
=66	=66	=66
0c	0e	0g
*-	*-	*-
!!!CDT: 1525/^1526/-1594/2/2
!!!OCY: Italia
!!!AGN: Mass (Paraphrase)
!!!AST: renaissance, vocal
!!!ASW: Gregorian Mass
!!!PWK: Masses, Book 2
!!!RNB: Cadence finals: G,D,E,F,C
!!!YOR: Le Opere Complete, v. 4, p. 1
!!!YOO: Rome, Italy: Fratelli Scalera
!!!END: 1992//
!!!EED: John Miller
!!!YEC: Copyright 2000, John Miller
!!!YEN: United States of America
!!!YEM: Rights to all derivative electronic formats reserved.
!!!YEM: Refer to licensing agreement for further details.
!!!YEM: This file must be accompanied by the licensing agreement.
!!!YEM: A copy of the licensing agreement may be found at http://www.music-cog.ohio-state.edu/HumdrumDatabases/Palestrina/license.txt
!!!EMD: converted to Humdrum by Bret Aarden
